public/logo192.svg

<svg width="200" height="257" viewBox="0 0 200 257" fill="none" xmlns="http://www.w3.org/2000/svg">
<path d="M76.3883 2.18389C63.6411 8.91298 53.0512 22.9649 46.9717 41.3709C44.9126 47.8032 44.6184 48.0011 39.1273 50.6729C34.3226 53.0479 28.5374 57.9958 21.3793 66.0113C17.5552 70.1675 10.2991 84.2194 7.45549 92.8287C-6.27224 133.698 -0.781148 180.307 21.7715 213.754C27.0665 221.671 40.9904 235.822 48.5406 240.869C64.0333 251.358 82.1735 257.098 99.7254 256.999C111.492 256.9 130.221 253.238 141.203 248.884C163.755 239.879 184.543 218.603 193.956 194.656C204.743 167.245 200.722 140.823 184.837 134.688C180.719 133.104 174.836 133.104 165.226 134.49C163.559 134.787 163.363 134.292 163.657 131.818C164.638 124.594 164.442 124 159.833 121.625C151.695 117.37 139.83 120.141 136.202 127.167C135.516 128.354 133.849 129.641 132.476 129.938C131.103 130.235 128.848 131.026 127.573 131.62C125.514 132.708 124.926 132.412 121.984 128.849C120.121 126.672 118.65 124.693 118.65 124.396C118.748 124.099 122.278 119.844 126.593 114.995C135.614 104.901 139.536 98.5682 141.791 90.7506C143.556 84.7142 143.164 80.8549 140.222 72.0477L138.261 66.3082L140.713 59.678C142.674 54.4333 143.164 51.2667 143.164 44.4386C143.164 33.3554 141.889 30.7825 136.986 31.0794C132.77 31.3763 122.376 36.1262 118.258 39.7876C116.689 41.173 115.316 42.2616 115.12 42.2616C114.924 42.2616 113.257 41.173 111.394 39.8866C109.531 38.6991 105.413 36.621 102.275 35.4335C93.548 32.069 93.7441 32.2669 92.5674 24.8451C90.8024 13.564 85.4094 0.501615 82.2716 0.00682862C81.5852 -0.0921286 78.8397 0.897444 76.3883 2.18389ZM81.193 8.81402C83.2522 11.4859 86.3899 22.2722 87.0763 29.2982C87.8607 37.4127 87.6646 37.3137 96.5877 39.9855C99.8235 40.8762 105.315 43.647 108.747 45.923C114.14 49.5844 115.316 49.9802 116.689 48.9907C128.259 40.3814 135.025 36.621 136.594 38.2043C137.771 39.3918 136.986 52.751 135.516 56.4124L134.339 59.0843L131.201 57.1051C121.101 50.8708 111.688 61.1624 116.003 73.73C117.375 77.6883 116.885 79.6674 114.728 78.381C114.14 77.9851 112.375 78.0841 110.708 78.381C108.256 78.9747 107.766 79.4695 108.06 81.6465C108.354 84.0215 108.845 84.3184 112.767 84.6153C119.435 85.11 119.827 86.2975 114.826 90.7506C106.197 98.3703 94.9207 102.032 79.9183 101.834C68.3478 101.834 66.6808 102.131 66.6808 104.704C66.6808 107.474 70.4069 108.563 79.9183 108.563C97.5682 108.563 111.198 103.516 121.101 93.3235C124.533 89.86 127.573 86.0996 127.867 85.0111C128.259 83.7246 127.377 81.3497 125.024 77.8862C122.278 73.8289 121.592 71.7508 121.592 67.9904C121.592 58.1937 127.377 59.1832 132.476 69.8706C135.025 75.1154 135.712 77.6883 135.712 82.834C135.81 86.3965 135.221 90.8496 134.437 92.7297C132.476 97.4797 125.808 106.782 118.944 114.401L113.159 120.735L107.276 120.834C103.157 120.933 100.118 121.625 96.6857 123.406C90.6063 126.474 89.1355 128.651 91.3907 131.026C92.9596 132.61 93.3518 132.511 97.8624 130.037C105.805 125.683 111.688 126.672 117.375 133.203C120.317 136.568 120.219 137.458 116.297 142.703C114.434 145.078 111.688 149.333 110.315 152.005L107.668 156.854L101.098 151.51C89.2335 141.516 75.898 136.865 65.4061 139.042C53.4434 141.417 43.5398 148.641 35.4012 160.812C30.8907 167.541 30.4004 171.203 33.9304 171.698C35.5973 171.896 36.774 170.807 39.2254 166.849C43.7359 159.427 51.6784 151.312 57.3656 148.344C63.9353 145.078 73.5447 144.286 80.5066 146.562C86.9783 148.74 95.0188 154.182 102.177 161.406C105.805 164.969 108.256 166.75 109.237 166.354C110.021 166.057 111.982 163.088 113.551 159.724C118.062 150.125 125.514 140.031 129.73 137.755L133.358 135.776L137.869 138.151C140.32 139.537 142.576 141.219 142.87 141.813C143.164 142.505 142.477 145.672 141.399 148.838C140.32 152.005 136.202 164.573 132.378 176.843C128.456 189.114 124.239 202.473 122.965 206.531C120.023 215.734 120.023 217.218 122.866 217.911C126.985 218.999 138.555 216.426 145.811 212.864C167.972 201.979 185.916 169.521 178.954 152.698C177.091 148.146 172.875 145.969 166.893 146.266C163.167 146.562 162.285 146.266 161.99 144.88C161.5 142.307 167.972 139.932 175.62 139.833C181.209 139.734 182.484 140.13 185.622 142.505C196.506 150.818 196.8 173.38 186.308 196.239C181.602 206.63 176.012 214.744 168.364 222.661C160.225 231.171 154.636 235.228 143.85 240.572C123.749 250.468 95.6071 253.139 75.3097 247.103C45.3048 237.999 20.2027 209.697 10.6913 174.073C6.08272 156.656 4.90605 138.052 7.35743 120.933C11.966 88.5735 24.9093 64.9228 42.6573 56.0166C48.2465 53.2458 49.7173 52.9489 54.4239 53.4437C64.9158 54.5323 74.5252 62.053 74.5252 69.2769C74.5252 77.8862 61.8761 78.0841 54.0317 69.5738C48.6387 63.8342 45.599 67.8915 46.3834 79.8653C46.8737 89.3652 50.0114 96.688 53.5414 96.688C56.8753 96.688 57.3656 94.6099 55.1103 90.0579C52.757 85.4069 51.3842 77.8862 52.855 77.8862C53.4434 77.8862 55.6006 78.7768 57.5617 79.8653C65.4061 84.0215 73.3486 83.2299 77.9572 77.6883C86.8802 67.0009 74.7214 49.4854 57.0714 47.4073C54.8161 47.2094 52.757 46.7146 52.5609 46.3188C52.0706 45.5272 54.522 37.9074 57.3656 31.7721C60.3072 25.3399 68.4458 15.4442 74.3291 11.09C79.5261 7.23071 79.8202 7.13175 81.193 8.81402ZM157.088 127.167C157.578 127.662 156.597 137.656 154.538 152.203C152.675 165.463 151.008 178.328 150.812 180.802C150.518 184.958 150.714 185.255 153.166 185.552C156.303 185.947 156.205 186.046 158.46 169.916C159.343 163.088 160.52 156.755 160.912 155.864C161.402 154.875 163.559 153.588 165.717 152.995C169.149 151.906 169.835 152.005 171.6 153.588C174.443 156.161 174.934 160.812 173.071 168.036C168.952 184.166 157.97 199.01 144.635 206.432C139.438 209.4 129.926 212.27 128.848 211.281C128.358 210.687 133.947 192.479 145.713 156.161C148.067 148.838 150.028 142.208 150.028 141.417C150.028 140.625 147.969 137.953 145.517 135.578C141.105 131.224 141.105 131.125 142.87 129.146C143.85 128.057 145.517 126.771 146.596 126.276C148.851 125.287 155.715 125.781 157.088 127.167Z" fill="#181818"/>
<path d="M85.3111 59.5792C83.8403 61.3605 84.6247 63.8344 86.9781 64.725C90.7041 66.1104 94.4302 69.376 95.803 72.6416C96.8816 75.2145 97.6661 76.0061 99.333 75.7093C104.628 74.9176 101.196 65.1208 94.1361 61.2615C88.8411 58.2928 86.6839 57.897 85.3111 59.5792Z" fill="#181818"/>
</svg>

<svg width="200" height="257" viewBox="0 0 200 257" fill="none" xmlns="http://www.w3.org/2000/svg">
<path d="M 76.388 2.184 C 63.641 8.913 53.051 22.964 46.972 41.37 c -2.06 6.432 -2.354 6.63 -7.845 9.302 c -4.804 2.375 -10.59 7.323 -17.748 15.338 C 17.555 70.168 10.3 84.22 7.455 92.83 C -6.272 133.698 -0.78 180.307 21.771 213.754 c 5.295 7.917 19.22 22.068 26.77 27.115 c 15.492 10.489 33.633 16.229 51.184 16.13 c 11.767 -0.099 30.496 -3.761 41.478 -8.115 c 22.552 -9.005 43.34 -30.281 52.753 -54.228 c 10.787 -27.411 6.766 -53.833 -9.119 -59.968 c -4.118 -1.584 -10.001 -1.584 -19.611 -0.198 c -1.667 0.297 -1.863 -0.198 -1.569 -2.672 c 0.981 -7.224 0.785 -7.818 -3.824 -10.193 c -8.138 -4.255 -20.003 -1.484 -23.631 5.542 c -0.686 1.187 -2.353 2.474 -3.726 2.771 c -1.373 0.297 -3.628 1.088 -4.903 1.682 c -2.059 1.088 -2.647 0.792 -5.589 -2.771 c -1.863 -2.177 -3.334 -4.156 -3.334 -4.453 c 0.098 -0.297 3.628 -4.552 7.943 -9.401 c 9.021 -10.094 12.943 -16.427 15.198 -24.244 c 1.765 -6.037 1.373 -9.896 -1.569 -18.703 l -1.961 -5.74 l 2.452 -6.63 c 1.961 -5.245 2.451 -8.411 2.451 -15.24 c 0 -11.083 -1.275 -13.656 -6.178 -13.359 c -4.216 0.297 -14.61 5.047 -18.728 8.709 c -1.569 1.385 -2.942 2.474 -3.138 2.474 c -0.196 0 -1.863 -1.089 -3.726 -2.375 c -1.863 -1.188 -5.981 -3.266 -9.119 -4.454 c -8.727 -3.364 -8.53 -3.166 -9.708 -10.588 C 90.802 13.564 85.41 0.502 82.272 0.007 c -0.687 -0.1 -3.432 0.89 -5.884 2.177 z m 4.805 6.63 c 2.06 2.672 5.197 13.458 5.883 20.484 c 0.785 8.115 0.589 8.016 9.512 10.688 c 3.236 0.89 8.727 3.661 12.159 5.937 c 5.393 3.661 6.569 4.057 7.942 3.068 c 11.57 -8.61 18.336 -12.37 19.905 -10.787 c 1.177 1.188 0.392 14.547 -1.078 18.208 l -1.177 2.672 l -3.138 -1.979 c -10.1 -6.234 -19.513 4.057 -15.198 16.625 c 1.372 3.958 0.882 5.937 -1.275 4.651 c -0.588 -0.396 -2.353 -0.297 -4.02 0 c -2.452 0.594 -2.942 1.089 -2.648 3.265 c 0.294 2.376 0.785 2.672 4.707 2.97 c 6.668 0.494 7.06 1.682 2.059 6.135 c -8.629 7.62 -19.905 11.281 -34.908 11.083 c -11.57 0 -13.237 0.297 -13.237 2.87 c 0 2.77 3.726 3.859 13.237 3.859 c 17.65 0 31.28 -5.047 41.183 -15.24 c 3.432 -3.463 6.472 -7.223 6.766 -8.312 c 0.392 -1.286 -0.49 -3.661 -2.843 -7.125 c -2.746 -4.057 -3.432 -6.135 -3.432 -9.896 c 0 -9.796 5.785 -8.807 10.884 1.88 c 2.549 5.245 3.236 7.818 3.236 12.964 c 0.098 3.563 -0.491 8.016 -1.275 9.896 c -1.961 4.75 -8.629 14.052 -15.493 21.671 l -5.785 6.334 l -5.883 0.099 c -4.119 0.099 -7.158 0.791 -10.59 2.572 c -6.08 3.068 -7.55 5.245 -5.295 7.62 c 1.569 1.584 1.96 1.485 6.471 -0.989 c 7.943 -4.354 13.826 -3.365 19.513 3.166 c 2.942 3.365 2.844 4.255 -1.078 9.5 c -1.863 2.375 -4.609 6.63 -5.982 9.302 l -2.647 4.849 l -6.57 -5.344 c -11.865 -9.994 -25.2 -14.645 -35.692 -12.468 c -11.963 2.375 -21.866 9.599 -30.005 21.77 c -4.51 6.729 -5 10.391 -1.47 10.886 c 1.666 0.198 2.843 -0.891 5.294 -4.849 c 4.51 -7.422 12.453 -15.537 18.14 -18.505 c 6.57 -3.266 16.18 -4.058 23.142 -1.782 c 6.471 2.178 14.512 7.62 21.67 14.844 c 3.628 3.563 6.079 5.344 7.06 4.948 c 0.784 -0.297 2.745 -3.266 4.314 -6.63 c 4.511 -9.599 11.963 -19.693 16.179 -21.969 l 3.628 -1.979 l 4.511 2.375 c 2.451 1.386 4.707 3.068 5.001 3.662 c 0.294 0.692 -0.393 3.859 -1.471 7.025 c -1.079 3.167 -5.197 15.735 -9.021 28.005 a 7384.002 7384.002 0 0 0 -9.413 29.688 c -2.942 9.203 -2.942 10.687 -0.099 11.38 c 4.119 1.088 15.689 -1.485 22.945 -5.047 c 22.161 -10.885 40.105 -43.343 33.143 -60.166 c -1.863 -4.552 -6.079 -6.729 -12.061 -6.432 c -3.726 0.296 -4.608 0 -4.903 -1.386 c -0.49 -2.573 5.982 -4.948 13.63 -5.047 c 5.589 -0.099 6.864 0.297 10.002 2.672 c 10.884 8.313 11.178 30.875 0.686 53.734 c -4.706 10.391 -10.296 18.505 -17.944 26.422 c -8.139 8.51 -13.728 12.567 -24.514 17.911 c -20.101 9.896 -48.243 12.567 -68.54 6.531 c -30.005 -9.104 -55.107 -37.406 -64.619 -73.03 c -4.608 -17.417 -5.785 -36.021 -3.334 -53.14 c 4.609 -32.36 17.552 -56.01 35.3 -64.916 c 5.59 -2.771 7.06 -3.068 11.767 -2.573 c 10.492 1.088 20.101 8.609 20.101 15.833 c 0 8.61 -12.649 8.807 -20.493 0.297 c -5.393 -5.74 -8.433 -1.682 -7.649 10.291 c 0.49 9.5 3.628 16.823 7.158 16.823 c 3.334 0 3.825 -2.078 1.57 -6.63 c -2.354 -4.651 -3.727 -12.172 -2.256 -12.172 c 0.588 0 2.746 0.89 4.707 1.98 c 7.844 4.156 15.787 3.364 20.395 -2.178 c 8.923 -10.687 -3.236 -28.203 -20.886 -30.28 c -2.255 -0.199 -4.314 -0.693 -4.51 -1.09 c -0.49 -0.79 1.961 -8.41 4.805 -14.546 c 2.941 -6.432 11.08 -16.328 16.963 -20.682 c 5.197 -3.86 5.491 -3.958 6.864 -2.276 z m 75.895 118.353 c 0.49 0.495 -0.491 10.489 -2.55 25.036 c -1.863 13.26 -3.53 26.125 -3.726 28.599 c -0.294 4.156 -0.098 4.453 2.354 4.75 c 3.137 0.395 3.039 0.494 5.294 -15.636 c 0.883 -6.828 2.06 -13.161 2.452 -14.052 c 0.49 -0.989 2.647 -2.276 4.805 -2.869 c 3.432 -1.089 4.118 -0.99 5.883 0.593 c 2.843 2.573 3.334 7.224 1.471 14.448 c -4.119 16.13 -15.101 30.974 -28.436 38.396 c -5.197 2.968 -14.709 5.838 -15.787 4.849 c -0.49 -0.594 5.099 -18.802 16.865 -55.12 c 2.354 -7.323 4.315 -13.953 4.315 -14.744 c 0 -0.792 -2.059 -3.464 -4.511 -5.839 c -4.412 -4.354 -4.412 -4.453 -2.647 -6.432 c 0.98 -1.089 2.647 -2.375 3.726 -2.87 c 2.255 -0.989 9.119 -0.495 10.492 0.891 z M 85.311 59.58 c -1.47 1.78 -0.686 4.254 1.667 5.145 c 3.726 1.385 7.452 4.651 8.825 7.917 c 1.079 2.573 1.863 3.364 3.53 3.067 c 5.295 -0.791 1.863 -10.588 -5.197 -14.448 c -5.295 -2.968 -7.452 -3.364 -8.825 -1.682 z M -7 57" fill="#181818"/>
</svg>
